!! 00000] TT[WS
!!!OTL: Liusanr tuiche
!!!ARE: Asia, China, Shanxi Linxian
!! Ethnic Group: Han
!! WI, 190
!!!SCT: J0227
!!!YEM: Copyright 1995, estate of Helmut Schaffrath.
**kern
*ICvox
*Ivox
!! Mixed meters:  2/4; 3/4
*M3/4
*k[b-e-]
*B-:
{8r
8dd
8ff
16ff
16gg
=1
8.bb-
16gg
4bb-
=2
8aa
4ddd
8ccc
=3
8.ddd
16ccc
8gg
8bb-}
=4
{8r
8ccc
8aa
16aa
16ccc
=5
8bb-
8aa
8gg
8ff
=6
8gg
8aa
8gg
8ff
4dd}
=7
{8.ddd
16aa
8gg
16gg
16bb-
4dd
=8
*M2/4
8ff
16gg
16ff
4dd
=9
8bb-
16bb-
16aa
16gg
16aa
16gg
16ff
=10
8gg
16gg
16bb-
4dd}
=11
{8ff
8aa
8gg
16gg
16ff
=12
8gg
16gg
16bb-
4dd
=13
8bb-
16bb-
16aa
16gg
16aa
16gg
16ff
=14
8gg
16gg
16bb-
4dd}
=15
*M3/4
{8.ff
16ff
8dd
8ff
4r
=16
*M2/4
8.ddd
16ccc
4ddd
=17
8ddd
8ccc
4bb-}
=18
{8aa
8ddd
8ddd
8aa
=19
8.ddd
16aa
8.ddd
16aa
=20
8gg
16gg
16ff
8.dd
16ff
=21
8gg
16aa
16gg
2ff}
==
!!!AGN: Xiaodiao. Fengsuge, Qingge
!!!ONB: ESAC (Essen Associative Code) Database: CHINA
!!!AMT: irregular
!!!AIN: vox
!!!EED: Helmut Schaffrath
!!!EEV: 1.0
*-
